svgs/thin/bong.svg

<svg xmlns="http://www.w3.org/2000/svg" viewBox="0 0 512 512"><!--! Font Awesome Pro 6.3.0 by @fontawesome - https://fontawesome.com License - https://fontawesome.com/license (Commercial License) Copyright 2023 Fonticons, Inc. --><path d="M477.7 226.3l-64-64c-3.125-3.125-8.188-3.125-11.31 0s-3.125 8.188 0 11.31L428.7 200l-59.44 59.44C347.6 234.3 319.9 214.5 288 203.2V16h24C316.4 16 320 12.42 320 8S316.4 0 312 0h-176C131.6 0 128 3.578 128 8S131.6 16 136 16H160v187.2C85.48 229.5 32 300.4 32 384c0 43.81 14.8 84.07 39.52 116.4C77.34 507.1 86.7 512 96.28 512h255.4c9.582 0 19-4.043 24.83-11.65c24.72-32.28 39.53-72.54 39.53-116.4c0-41.98-13.54-80.73-36.42-112.3L440 211.3l26.34 26.34C467.9 239.2 469.9 240 472 240s4.094-.7813 5.656-2.344C480.8 234.5 480.8 229.5 477.7 226.3zM165.3 218.2C171.7 215.1 176 209.9 176 203.2V16h96v187.2c0 6.777 4.271 12.82 10.66 15.08C331.7 235.6 369 273.5 387.3 320H60.66C79 273.5 116.3 235.6 165.3 218.2zM363.8 490.6C361.2 493.1 356.7 496 351.7 496H96.31c-4.994 0-9.514-2.01-12.09-5.377C60.53 459.7 48 422.8 48 384c0-16.67 2.697-32.83 7.17-48.34C55.48 335.7 55.68 336 56 336h336c.3223 0 .5176-.3066 .8301-.3438C397.3 351.2 400 367.3 400 384C400 422.8 387.5 459.7 363.8 490.6z"/></svg>

<svg xmlns="http://www.w3.org/2000/svg" viewBox="0 0 512 512"><!-- Font Awesome Pro 6.0.0-alpha2 by @fontawesome - https://fontawesome.com License - https://fontawesome.com/license (Commercial License) --><path d="M477.656 226.344L413.656 162.344C410.531 159.219 405.469 159.219 402.344 162.344S399.219 170.531 402.344 173.656L428.688 200L369.25 259.438C347.598 234.293 319.932 214.465 288 203.16V16H312C316.406 16 320 12.422 320 8S316.406 0 312 0H136C131.594 0 128 3.578 128 8S131.594 16 136 16H160V203.16C85.477 229.545 32 300.438 32 384C32 427.807 46.797 468.07 71.52 500.352C77.344 507.957 86.732 512 96.314 512H351.688C361.27 512 370.658 507.957 376.482 500.352C401.205 468.07 416 427.807 416 384C416 342.021 402.475 303.266 379.594 271.719L440 211.312L466.344 237.656C467.906 239.219 469.938 240 472 240S476.094 239.219 477.656 237.656C480.781 234.531 480.781 229.469 477.656 226.344ZM165.34 218.242C171.729 215.98 176 209.938 176 203.16V16H272V203.16C272 209.938 276.271 215.98 282.66 218.242C331.672 235.596 369 273.521 387.336 320H60.664C79 273.521 116.328 235.596 165.34 218.242ZM363.779 490.623C361.201 493.99 356.682 496 351.688 496H96.314C91.32 496 86.801 493.99 84.223 490.623C60.525 459.682 48 422.811 48 384C48 367.334 50.697 351.166 55.17 335.656C55.482 335.693 55.678 336 56 336H392C392.322 336 392.518 335.693 392.83 335.656C397.303 351.166 400 367.334 400 384C400 422.812 387.475 459.682 363.779 490.623Z"/></svg>
